src/assets/ui/arrow_right_yellow.svg

<svg height="119" viewBox="0 0 172 119" width="172" xmlns="http://www.w3.org/2000/svg" xmlns:xlink="http://www.w3.org/1999/xlink"><mask id="a" fill="#fff"><path d="m27 86.0344828 17.7-17.6896552 29.5 29.4827586v-123.8275862h23.6v123.8275862l29.5-29.4827586 17.7 17.6896552-59 58.9655172z" fill="#fff" fill-rule="evenodd"/></mask><path d="m-1.92856344 40.9285634 102.74899944 102.7489996-1.0173171 1.017316-102.74899917-102.7489987zm-4.52705987 4.5270599 102.74899921 102.7489997-1.0173168 1.017316-102.74899923-102.7489989zm-4.52705989 4.5270599 102.7489992 102.7489988-1.0173168 1.017317-102.7489992-102.748999zm13.58117962-13.5811796 102.74899958 102.7489994-1.017317 1.017317-102.7489994-102.7489996zm4.52705987-4.5270599 102.74899871 102.7489993-1.017316 1.017317-102.74899954-102.7489995zm4.52705991-4.5270599 102.7489988 102.7489992-1.017316 1.017317-102.7489997-102.7489993zm4.5270598-4.5270598 102.748999 102.748999-1.017317 1.017317-102.7489988-102.7489992zm4.5270599-4.5270599 102.7489991 102.7489989-1.017317 1.017317-102.7489989-102.7489991zm4.5270599-4.5270599 102.7489992 102.7489988-1.017317 1.017317-102.7489991-102.7489989zm4.5270598-4.52705982 102.7489994 102.74899962-1.017317 1.017316-102.7489992-102.7489988zm4.5270599-4.52705986 102.7489995 102.74899948-1.017317 1.017317-102.7489993-102.74899966zm4.5270599-4.52705987 102.7489996 102.74899935-1.017317 1.017317-102.7489995-102.74899953zm4.5270598-4.52705987 102.7489988 102.74899922-1.017316 1.0173168-102.7489996-102.74899919zm4.5270599-4.52705986 102.7489989 102.74899918-1.017317 1.0173168-102.7489987-102.74899916zm4.5270598-4.52705982 102.7489991 102.7489992-1.017317 1.0173168-102.7489989-102.7489992zm4.5270599-4.5270599 102.7489992 102.7489992-1.017317 1.0173168-102.748999-102.7489992zm4.5270599-4.5270599 102.7489993 102.7489992-1.017317 1.0173169-102.7489991-102.7489993zm4.5270598-4.5270598 102.7489995 102.7489992-1.017317 1.0173168-102.7489993-102.7489992zm4.5270599-4.5270599 102.7489996 102.7489992-1.017317 1.0173168-102.7489994-102.7489992zm4.5270599-4.5270599 102.7489987 102.7489992-1.017316 1.0173169-102.7489995-102.7489993zm4.5270598-4.5270598 102.7489989 102.7489992-1.017316 1.0173168-102.7489997-102.7489992z" fill="#ffe500" fill-rule="evenodd" mask="url(#a)" transform="matrix(0 -1 1 0 30.251 147.558514)"/></svg>

<?xml version="1.0" encoding="UTF-8"?>
<svg width="172px" height="119px" viewBox="0 0 172 119" version="1.1" xmlns="http://www.w3.org/2000/svg" xmlns:xlink="http://www.w3.org/1999/xlink">
    <!-- Generator: Sketch 51.3 (57544) - http://www.bohemiancoding.com/sketch -->
    <title>arrow_right_yellow</title>
    <desc>Created with Sketch.</desc>
    <defs>
        <polygon id="path-1" points="27 86.0344828 44.7 68.3448276 74.2 97.8275862 74.2 -26 97.8 -26 97.8 97.8275862 127.3 68.3448276 145 86.0344828 86 145"></polygon>
    </defs>
    <g id="assets" stroke="none" stroke-width="1" fill="none" fill-rule="evenodd">
        <g id="Artboard-2" transform="translate(-124.000000, -124.000000)">
            <g id="Group" transform="translate(210.000000, 183.500000) rotate(-180.000000) translate(-210.000000, -183.500000) translate(124.000000, 124.000000)">
                <mask id="mask-2" fill="white">
                    <use xlink:href="#path-1"></use>
                </mask>
                <g id="Mask" transform="translate(86.000000, 59.500000) rotate(-90.000000) translate(-86.000000, -59.500000) "></g>
                <path d="M-1.92856344,40.9285634 L100.820436,143.677563 L99.8031189,144.694879 L-2.94588027,41.9458803 L-1.92856344,40.9285634 Z M-6.45562331,45.4556233 L96.2933759,148.204623 L95.2760591,149.221939 L-7.47294013,46.4729401 L-6.45562331,45.4556233 Z M-10.9826832,49.9826832 L91.766316,152.731682 L90.7489992,153.748999 L-12,51 L-10.9826832,49.9826832 Z M2.59849642,36.4015036 L105.347496,139.150503 L104.330179,140.16782 L1.5811796,37.4188204 L2.59849642,36.4015036 Z M7.12555629,31.8744437 L109.874555,134.623443 L108.857239,135.64076 L6.10823946,32.8917605 L7.12555629,31.8744437 Z M11.6526162,27.3473838 L114.401615,130.096383 L113.384299,131.1137 L10.6352993,28.3647007 L11.6526162,27.3473838 Z M16.179676,22.820324 L118.928675,125.569323 L117.911358,126.58664 L15.1623592,23.8376408 L16.179676,22.820324 Z M20.7067359,18.2932641 L123.455735,121.042263 L122.438418,122.05958 L19.6894191,19.3105809 L20.7067359,18.2932641 Z M25.2337958,13.7662042 L127.982795,116.515203 L126.965478,117.53252 L24.2164789,14.7835211 L25.2337958,13.7662042 Z M29.7608556,9.23914438 L132.509855,111.988144 L131.492538,113.00546 L28.7435388,10.2564612 L29.7608556,9.23914438 Z M34.2879155,4.71208452 L137.036915,107.461084 L136.019598,108.478401 L33.2705987,5.72940134 L34.2879155,4.71208452 Z M38.8149754,0.185024649 L141.563975,102.934024 L140.546658,103.951341 L37.7976585,1.20234147 L38.8149754,0.185024649 Z M43.3420352,-4.34203522 L146.091034,98.406964 L145.073718,99.4242808 L42.3247184,-3.32471839 L43.3420352,-4.34203522 Z M47.8690951,-8.86909508 L150.618094,93.8799041 L149.600777,94.8972209 L46.8517783,-7.85177826 L47.8690951,-8.86909508 Z M52.3961549,-13.3961549 L155.145154,89.3528443 L154.127837,90.3701611 L51.3788381,-12.3788381 L52.3961549,-13.3961549 Z M56.9232148,-17.9232148 L159.672214,84.8257844 L158.654897,85.8431012 L55.905898,-16.905898 L56.9232148,-17.9232148 Z M61.4502747,-22.4502747 L164.199274,80.2987245 L163.181957,81.3160414 L60.4329579,-21.4329579 L61.4502747,-22.4502747 Z M65.9773345,-26.9773345 L168.726334,75.7716647 L167.709017,76.7889815 L64.9600177,-25.9600177 L65.9773345,-26.9773345 Z M70.5043944,-31.5043944 L173.253394,71.2446048 L172.236077,72.2619216 L69.4870776,-30.4870776 L70.5043944,-31.5043944 Z M75.0314543,-36.0314543 L177.780453,66.7175449 L176.763137,67.7348618 L74.0141375,-35.0141375 L75.0314543,-36.0314543 Z M79.5585141,-40.5585141 L182.307513,62.1904851 L181.290197,63.2078019 L78.5411973,-39.5411973 L79.5585141,-40.5585141 Z" id="Combined-Shape" fill="#FFE500" mask="url(#mask-2)" transform="translate(85.153757, 56.595243) rotate(-270.000000) translate(-85.153757, -56.595243) "></path>
            </g>
        </g>
    </g>
</svg>
